resources/svg/map-2-line.svg

<svg fill="currentColor" viewBox="0 0 24 24" xmlns="http://www.w3.org/2000/svg"><path d="M2 5L9 2L15 5L21.303 2.2987C21.5569 2.18992 21.8508 2.30749 21.9596 2.56131C21.9862 2.62355 22 2.69056 22 2.75827V19L15 22L9 19L2.69696 21.7013C2.44314 21.8101 2.14921 21.6925 2.04043 21.4387C2.01375 21.3765 2 21.3094 2 21.2417V5ZM16 19.3955L20 17.6812V5.03308L16 6.74736V19.3955ZM14 19.2639V6.73607L10 4.73607V17.2639L14 19.2639ZM8 17.2526V4.60451L4 6.31879V18.9669L8 17.2526Z"/></svg>

<svg xmlns="http://www.w3.org/2000/svg" viewBox="0 0 24 24" fill="currentColor">
    <g>
        <path fill="none" d="M0 0h24v24H0z"/>
        <path d="M2 5l7-3 6 3 6.303-2.701a.5.5 0 0 1 .697.46V19l-7 3-6-3-6.303 2.701a.5.5 0 0 1-.697-.46V5zm14 14.395l4-1.714V5.033l-4 1.714v12.648zm-2-.131V6.736l-4-2v12.528l4 2zm-6-2.011V4.605L4 6.319v12.648l4-1.714z"/>
    </g>
</svg>
